**kern	**kern	**kern
*^	*	*
*clefF4	*clefF4	*clefG2
*k[b-e-a-d-]	*k[b-e-a-d-]	*k[b-e-a-d-]
*M2/4	*M2/4	*M2/4
=	=	=
8EE-(	2EE-[	4r
4.E-[)	.	.
.	.	16dd-X(L
.	.	16b-
.	.	16ddn
.	.	16bnJ
*v	*v	*
=	=
2EE-_ 2E-_	16ee-L
.	16cc
.	16ddn
.	16bnJ
.	16ee-L
.	16cc
.	16dd
.	16bJ
=	=
2EE-_ 2E-_	16ee-L
.	16cc
.	16ddn
.	16bnJ
.	16ee-L
.	16cc
.	16ff
.	16anJ
=	=
2EE-_ 2E-_	16dd-XL
.	16b-X
.	16ee-
.	16gJ
.	16ccLL<
.	16a-X
.	16dd-
.	16fJ
2EE-] 2E-]	16b-L
.	16g
.	16cc
.	16enJ
.	16a-L
.	16f
.	16b-
.	16dnJ)
=	=
*^	*
4r	2E-[	16gL
.	.	16e-X
.	.	16dn
.	.	16e-J
8d-X(L	.	16gL
.	.	16e-
8cJ	.	16a-
.	.	16e-J
=	=	=
8B-L	2E-]	16b-L
.	.	16e-
8A-	.	16cc
.	.	16e-J
8G	.	16dd-L
.	.	16e-
8FJ	.	16ddn
.	.	16e-J
*v	*v	*
=	=
8E-L	16ee-L
.	16e-
8D-	16g 16ee-
.	16e-J
8C	16a-L 16ee-L
.	16e-
8AA-J)	16a- 16cc 16ee-
.	16e-J
=	=
8E-'L	16gL 16b-L 16ee-L
.	16e-
8EE-'J	16g 16b- 16ee-
.	16e-J
16e-(L	16cc(L
16c	16ee-
16f	16an
16AnJ	16ffJ
2EE-] 2E-]	16b-L
.	16g
.	16cc
.	16enJ
.	16a-L
.	16f
.	16b-
.	16dnJ)
=	=
*-	*-
